src/icons/call-outgoing.svg

<svg width="16" height="16" viewBox="0 0 16 16" fill="none" xmlns="http://www.w3.org/2000/svg">
<path d="M8.64844 6.64844L13.2891 2H10V1H15V6H14V2.71094L9.35156 7.35156L8.64844 6.64844ZM11.9531 9.21094C12.1562 9.21094 12.3542 9.25 12.5469 9.32812C12.7396 9.40625 12.9089 9.51823 13.0547 9.66406C13.1641 9.77344 13.2865 9.88802 13.4219 10.0078C13.5573 10.1276 13.7005 10.2552 13.8516 10.3906C14.0026 10.526 14.1432 10.6667 14.2734 10.8125C14.4036 10.9583 14.526 11.1068 14.6406 11.2578C14.7552 11.4089 14.8411 11.5703 14.8984 11.7422C14.9557 11.9141 14.9896 12.0859 15 12.2578C15 12.4609 14.9609 12.6589 14.8828 12.8516C14.8047 13.0443 14.6927 13.2135 14.5469 13.3594C14.2812 13.625 14.0417 13.8594 13.8281 14.0625C13.6146 14.2656 13.3932 14.4375 13.1641 14.5781C12.9349 14.7188 12.6771 14.8229 12.3906 14.8906C12.1042 14.9583 11.7682 14.9948 11.3828 15C10.8151 15 10.2318 14.9115 9.63281 14.7344C9.03385 14.5573 8.4375 14.3125 7.84375 14C7.25 13.6875 6.66927 13.3151 6.10156 12.8828C5.53385 12.4505 4.9974 11.9792 4.49219 11.4688C3.98698 10.9583 3.51823 10.4193 3.08594 9.85156C2.65365 9.28385 2.28646 8.70573 1.98438 8.11719C1.68229 7.52865 1.44271 6.9375 1.26562 6.34375C1.08854 5.75 1 5.17708 1 4.625C1 4.22917 1.03385 3.89062 1.10156 3.60938C1.16927 3.32812 1.27344 3.07292 1.41406 2.84375C1.55469 2.61458 1.72656 2.39323 1.92969 2.17969C2.13281 1.96615 2.36979 1.72396 2.64062 1.45312C2.78646 1.30729 2.95573 1.19531 3.14844 1.11719C3.34115 1.03906 3.53906 1 3.74219 1C4.0026 1 4.2526 1.07031 4.49219 1.21094C4.73177 1.35156 4.96354 1.52344 5.1875 1.72656C5.41146 1.92969 5.61719 2.14323 5.80469 2.36719C5.99219 2.59115 6.16927 2.78385 6.33594 2.94531C6.48177 3.09115 6.59375 3.26042 6.67188 3.45312C6.75 3.64583 6.78906 3.84375 6.78906 4.04688C6.78906 4.25 6.75521 4.43229 6.6875 4.59375C6.61979 4.75521 6.53646 4.89844 6.4375 5.02344C6.33854 5.14844 6.22917 5.26562 6.10938 5.375C5.98958 5.48438 5.88021 5.58854 5.78125 5.6875C5.68229 5.78646 5.59635 5.88281 5.52344 5.97656C5.45052 6.07031 5.41667 6.17448 5.42188 6.28906C5.42188 6.35156 5.46875 6.45052 5.5625 6.58594C5.65625 6.72135 5.78646 6.88281 5.95312 7.07031C6.11979 7.25781 6.30469 7.45833 6.50781 7.67188C6.71094 7.88542 6.92969 8.10677 7.16406 8.33594C7.39844 8.5651 7.625 8.78646 7.84375 9C8.0625 9.21354 8.27344 9.41667 8.47656 9.60938C8.67969 9.80208 8.85156 9.96615 8.99219 10.1016C9.13281 10.237 9.24219 10.3411 9.32031 10.4141C9.42969 10.5234 9.5599 10.5781 9.71094 10.5781C9.82031 10.5781 9.92188 10.5443 10.0156 10.4766C10.1094 10.4089 10.2057 10.3255 10.3047 10.2266C10.4036 10.1276 10.5052 10.0182 10.6094 9.89844C10.7135 9.77865 10.8333 9.66927 10.9688 9.57031C11.1042 9.47135 11.2474 9.38542 11.3984 9.3125C11.5495 9.23958 11.7344 9.20573 11.9531 9.21094ZM11.3828 14C11.7005 14 11.9661 13.9714 12.1797 13.9141C12.3932 13.8568 12.5885 13.7682 12.7656 13.6484C12.9427 13.5286 13.1094 13.388 13.2656 13.2266C13.4219 13.0651 13.612 12.875 13.8359 12.6562C13.9453 12.5469 14 12.4167 14 12.2656C14 12.1979 13.9583 12.1016 13.875 11.9766C13.7917 11.8516 13.6875 11.7109 13.5625 11.5547C13.4375 11.3984 13.2943 11.2422 13.1328 11.0859C12.9714 10.9297 12.8151 10.7865 12.6641 10.6562C12.513 10.526 12.375 10.4193 12.25 10.3359C12.125 10.2526 12.026 10.2109 11.9531 10.2109C11.8438 10.2109 11.7396 10.2448 11.6406 10.3125C11.5417 10.3802 11.4453 10.4635 11.3516 10.5625C11.2578 10.6615 11.1562 10.7708 11.0469 10.8906C10.9375 11.0104 10.8177 11.1198 10.6875 11.2188C10.5573 11.3177 10.4141 11.4036 10.2578 11.4766C10.1016 11.5495 9.91927 11.5833 9.71094 11.5781C9.5026 11.5781 9.30469 11.5391 9.11719 11.4609C8.92969 11.3828 8.76042 11.2682 8.60938 11.1172L4.88281 7.39062C4.73698 7.24479 4.625 7.07812 4.54688 6.89062C4.46875 6.70312 4.42708 6.5026 4.42188 6.28906C4.42188 6.08594 4.45573 5.90625 4.52344 5.75C4.59115 5.59375 4.67448 5.44792 4.77344 5.3125C4.8724 5.17708 4.98177 5.0599 5.10156 4.96094C5.22135 4.86198 5.33073 4.75781 5.42969 4.64844C5.52865 4.53906 5.61458 4.44271 5.6875 4.35938C5.76042 4.27604 5.79427 4.17188 5.78906 4.04688C5.78906 3.97917 5.7474 3.88281 5.66406 3.75781C5.58073 3.63281 5.47656 3.49479 5.35156 3.34375C5.22656 3.19271 5.08333 3.03646 4.92188 2.875C4.76042 2.71354 4.60417 2.57031 4.45312 2.44531C4.30208 2.32031 4.16146 2.21354 4.03125 2.125C3.90104 2.03646 3.80469 1.99479 3.74219 2C3.58594 2 3.45312 2.05469 3.34375 2.16406C3.13021 2.3776 2.9401 2.5651 2.77344 2.72656C2.60677 2.88802 2.46615 3.05469 2.35156 3.22656C2.23698 3.39844 2.15104 3.59375 2.09375 3.8125C2.03646 4.03125 2.00521 4.29427 2 4.60156C2 5.10156 2.08073 5.61719 2.24219 6.14844C2.40365 6.67969 2.6276 7.21615 2.91406 7.75781C3.20052 8.29948 3.54427 8.82552 3.94531 9.33594C4.34635 9.84635 4.77604 10.3333 5.23438 10.7969C5.69271 11.2604 6.18229 11.6875 6.70312 12.0781C7.22396 12.4688 7.75 12.8073 8.28125 13.0938C8.8125 13.3802 9.34115 13.6016 9.86719 13.7578C10.3932 13.9141 10.8984 13.9948 11.3828 14Z" fill="#C5C5C5"/>
</svg>

<svg width="16" height="16" xmlns="http://www.w3.org/2000/svg"><path d="M8.648 6.648L13.29 2H10V1h5v5h-1V2.71L9.352 7.353l-.704-.704zm3.305 2.563a1.567 1.567 0 0 1 1.102.453c.11.11.232.224.367.344l.43.383c.15.135.291.276.421.421.13.146.253.295.368.446.114.15.2.312.257.484.058.172.092.344.102.516a1.568 1.568 0 0 1-.453 1.101c-.266.266-.505.5-.719.704a4.006 4.006 0 0 1-.664.515c-.23.14-.487.245-.773.313a4.696 4.696 0 0 1-1.008.109 6.157 6.157 0 0 1-1.75-.266A9.819 9.819 0 0 1 7.843 14a12.445 12.445 0 0 1-1.741-1.117 15.329 15.329 0 0 1-1.61-1.414c-.505-.51-.974-1.05-1.406-1.617a11.64 11.64 0 0 1-1.102-1.735 10.38 10.38 0 0 1-.718-1.773A6.005 6.005 0 0 1 1 4.625c0-.396.034-.734.102-1.016a2.63 2.63 0 0 1 .312-.765c.14-.23.313-.45.516-.664.203-.214.44-.456.71-.727A1.567 1.567 0 0 1 3.743 1c.26 0 .51.07.75.21.24.142.472.313.696.517.223.203.43.416.617.64.187.224.364.417.53.578a1.567 1.567 0 0 1 .453 1.102 1.4 1.4 0 0 1-.1.547 1.824 1.824 0 0 1-.25.43 2.983 2.983 0 0 1-.329.351c-.12.11-.229.214-.328.313a3.128 3.128 0 0 0-.258.289.46.46 0 0 0-.101.312c0 .063.047.162.14.297a5.3 5.3 0 0 0 .391.484 24.386 24.386 0 0 0 1.211 1.266c.234.23.461.45.68.664.218.214.43.417.633.61.203.192.375.356.515.492.14.135.25.24.328.312a.534.534 0 0 0 .696.063c.093-.068.19-.152.289-.25.099-.1.2-.209.304-.329.104-.12.224-.229.36-.328.135-.099.278-.185.43-.258a1.21 1.21 0 0 1 .554-.101zM11.383 14c.318 0 .583-.029.797-.086a1.93 1.93 0 0 0 .586-.266c.177-.12.343-.26.5-.421.156-.162.346-.352.57-.57.11-.11.164-.24.164-.391 0-.068-.042-.164-.125-.29a6.122 6.122 0 0 0-.313-.421 5.01 5.01 0 0 0-.43-.47c-.16-.155-.317-.299-.468-.429a4.322 4.322 0 0 0-.414-.32c-.125-.083-.224-.125-.297-.125a.545.545 0 0 0-.312.101 1.801 1.801 0 0 0-.29.25c-.093.1-.195.209-.304.329-.11.12-.23.229-.36.328-.13.099-.273.185-.43.258a1.208 1.208 0 0 1-.546.101 1.527 1.527 0 0 1-1.102-.46L4.883 7.39a1.537 1.537 0 0 1-.336-.5 1.655 1.655 0 0 1-.125-.602c0-.203.034-.383.101-.539.068-.156.151-.302.25-.438.1-.135.209-.252.329-.351.12-.099.229-.203.328-.313.099-.109.185-.205.258-.289a.429.429 0 0 0 .101-.312c0-.068-.042-.164-.125-.29a5.085 5.085 0 0 0-.312-.413 6.791 6.791 0 0 0-.43-.469 6.787 6.787 0 0 0-.469-.43 5.674 5.674 0 0 0-.422-.32c-.13-.089-.226-.13-.289-.125a.542.542 0 0 0-.398.164 65.24 65.24 0 0 1-.57.563 3.073 3.073 0 0 0-.422.5 1.9 1.9 0 0 0-.258.586A3.377 3.377 0 0 0 2 4.601c0 .5.08 1.015.242 1.546a9.12 9.12 0 0 0 .672 1.61c.287.541.63 1.068 1.031 1.578.401.51.831.997 1.29 1.46a13.205 13.205 0 0 0 3.046 2.298 8.37 8.37 0 0 0 1.586.664 5.526 5.526 0 0 0 1.516.242z"/></svg>
